svg/u1f94f.svg

<svg viewBox="0 0 128 128" xmlns="http://www.w3.org/2000/svg">
  <path d="M14.44,69.4l-8.75,8.22c0,0-0.02,9.43,6.27,17.3c5.62,7.03,28.24,19.84,66.7,4.06 c45.66-18.73,43.92-49.14,42.06-55.72c-2.48-8.76-6.68-13.58-17.12-17.12S14.44,69.4,14.44,69.4z" fill="#1E86FF"/>
  <path d="M44.63,30.63c-29.06,13-44.36,39.51-37.27,53.3c7.85,15.28,40.28,19.4,72.12,4.66 c32.61-15.1,43.61-42.49,35.22-54.61S76.64,16.31,44.63,30.63z" fill="#00C1EC"/>
  <path d="M11.91,70.28c-1.92,0.64-2.22,8.18,1.97,13.55c5.33,6.83,17.13,8.57,17.71,5.9 c0.6-2.75-7.16-2.53-13.2-8.7C14.15,76.7,13.3,69.82,11.91,70.28z" fill="#6FE8FD"/>
  <path d="M41.66,91.27c1,2.49,11.83,0.43,16.44-0.58c7.41-1.62,17.95-6.25,26.17-11.23 s15.28-12.27,18.06-15.75c2.78-3.47,4.05-6.95,2.55-7.76c-1.51-0.81-4.5,4.61-10.65,10.19c-9.96,9.03-24.31,16.9-37.74,20.15 C49.54,87.96,40.73,88.95,41.66,91.27z" fill="#6FE8FD"/>
  <path d="M107.06,34.1c-1.75,0.95,0.58,2.84,0.65,5.89c0.05,2.13-1.38,5.82,0.51,6.18 c1.89,0.36,3.73-2.65,3.78-6.84C112.04,36.57,109.06,33.02,107.06,34.1z" fill="#6FE8FD"/>
  <path d="M44.31,79.85c-11.37,0-19.58-4.07-22.19-10.11c-3.99-9.2,4.17-23.95,26.33-33.95l0,0 c21.75-9.81,41.69-7.23,47.08,1.71c2.03,3.36,2.54,8.08,0.99,12.79c-3.18,9.67-13.36,18.3-27.48,24.16 C59.93,78.23,51.49,79.85,44.31,79.85z M49.54,38.39C34.8,45.24,20.23,58.34,24.69,68.63c3.26,7.53,19.9,12.7,43.05,3.09 c18.99-7.88,24.48-18.36,25.86-22.57c1.29-3.92,1.18-7.22-0.41-9.87C89.15,32.58,71.49,28.49,49.54,38.39L49.54,38.39z" fill="#DFEEF1"/>
  <path d="M34.06,29.45c0.82,1.56,3.58-1.02,8.28-3.33s14.51-6.49,27.23-8.45s24.58-0.26,28.08,0.43 c3.5,0.68,5.46,0.77,5.72,0c0.26-0.77-0.6-2.05-5.72-3.41s-17.92-3.16-28.76-1.45s-21.37,5.53-27.6,9.54S33.3,27.99,34.06,29.45z" fill="#C9C9C9"/>
  <path d="M52.59,10.58c0.3,1.97,9.22-1.88,16.9-2.73C77.14,7,84.93,7.6,86.47,7.68 c1.54,0.09,2.48-0.17,2.65-0.94c0.17-0.77-4.22-4.22-19.63-2.81C56.55,5.1,52.41,9.45,52.59,10.58z" fill="#C9C9C9"/>
  <path d="M15.12,112.66c-0.18,0.71,2.62,2.06,7.6,3.07c5.04,1.02,17.49,1.88,29.45,0.17 c12.75-1.82,22.86-6.29,25.17-7.57c2.3-1.28,4.88-3.78,4.11-4.63c-0.77-0.85-5.89,2.13-10.16,3.33s-12.72,3.93-23.64,5.12 s-21.34,0.51-24.75,0.43C19.47,112.49,15.37,111.64,15.12,112.66z" fill="#C9C9C9"/>
  <path d="M50.37,122.74c0.25,1.43,8.59,2.56,21.08-1.86c12.91-4.57,16.47-10.03,15.96-10.86 c-0.94-1.54-7.62,3.95-17.75,7.17C57.02,121.2,50.11,121.28,50.37,122.74z" fill="#C9C9C9"/>
</svg>

<svg viewBox="0 0 128 128" xmlns="http://www.w3.org/2000/svg">
  <defs/>
  <path d="M14.44,69.4 L5.69,77.62 C5.69,77.62 5.67,87.05 11.96,94.92 C17.58,101.95 40.2,114.76 78.66,98.98 C124.32,80.25 122.58,49.84 120.72,43.26 C118.24,34.5 114.04,29.68 103.6,26.14 C93.16,22.6 14.44,69.4 14.44,69.4 Z" fill="#1E86FF"/>
  <path d="M44.63,30.63 C15.57,43.63 0.27,70.14 7.36,83.93 C15.21,99.21 47.64,103.33 79.48,88.59 C112.09,73.49 123.09,46.1 114.7,33.98 C106.31,21.86 76.64,16.31 44.63,30.63 Z" fill="#00C1EC"/>
  <path d="M11.91,70.28 C9.99,70.92 9.69,78.46 13.88,83.83 C19.21,90.66 31.01,92.4 31.59,89.73 C32.19,86.98 24.43,87.2 18.39,81.03 C14.15,76.7 13.3,69.82 11.91,70.28 Z" fill="#6FE8FD"/>
  <path d="M41.66,91.27 C42.66,93.76 53.49,91.7 58.1,90.69 C65.51,89.07 76.05,84.44 84.27,79.46 C92.49,74.48 99.55,67.19 102.33,63.71 C105.11,60.24 106.38,56.76 104.88,55.95 C103.37,55.14 100.38,60.56 94.23,66.14 C84.27,75.17 69.92,83.04 56.49,86.29 C49.54,87.96 40.73,88.95 41.66,91.27 Z" fill="#6FE8FD"/>
  <path d="M107.06,34.1 C105.31,35.05 107.64,36.94 107.71,39.99 C107.76,42.12 106.33,45.81 108.22,46.17 C110.11,46.53 111.95,43.52 112,39.33 C112.04,36.57 109.06,33.02 107.06,34.1 Z" fill="#6FE8FD"/>
  <path d="M44.31,79.85 C32.94,79.85 24.73,75.78 22.12,69.74 C18.13,60.54 26.29,45.79 48.45,35.79 L48.45,35.79 C70.2,25.98 90.14,28.56 95.53,37.5 C97.56,40.86 98.07,45.58 96.52,50.29 C93.34,59.96 83.16,68.59 69.04,74.45 C59.93,78.23 51.49,79.85 44.31,79.85 Z M49.54,38.39 C34.8,45.24 20.23,58.34 24.69,68.63 C27.95,76.16 44.59,81.33 67.74,71.72 C86.73,63.84 92.22,53.36 93.6,49.15 C94.89,45.23 94.78,41.93 93.19,39.28 C89.15,32.58 71.49,28.49 49.54,38.39 L49.54,38.39 Z" fill="#DFEEF1"/>
  <path d="M34.06,29.45 C34.88,31.01 37.64,28.43 42.34,26.12 C47.04,23.81 56.85,19.63 69.57,17.67 C82.29,15.71 94.15,17.41 97.65,18.1 C101.15,18.78 103.11,18.87 103.37,18.1 C103.63,17.33 102.77,16.05 97.65,14.69 C92.53,13.33 79.73,11.53 68.89,13.24 C58.05,14.95 47.52,18.77 41.29,22.78 C35.06,26.79 33.3,27.99 34.06,29.45 Z" fill="#C9C9C9"/>
  <path d="M52.59,10.58 C52.89,12.55 61.81,8.7 69.49,7.85 C77.14,7 84.93,7.6 86.47,7.68 C88.01,7.77 88.95,7.51 89.12,6.74 C89.29,5.97 84.9,2.52 69.49,3.93 C56.55,5.1 52.41,9.45 52.59,10.58 Z" fill="#C9C9C9"/>
  <path d="M15.12,112.66 C14.94,113.37 17.74,114.72 22.72,115.73 C27.76,116.75 40.21,117.61 52.17,115.9 C64.92,114.08 75.03,109.61 77.34,108.33 C79.64,107.05 82.22,104.55 81.45,103.7 C80.68,102.85 75.56,105.83 71.29,107.03 C67.02,108.23 58.57,110.96 47.65,112.15 C36.73,113.34 26.31,112.66 22.9,112.58 C19.47,112.49 15.37,111.64 15.12,112.66 Z" fill="#C9C9C9"/>
  <path d="M50.37,122.74 C50.62,124.17 58.96,125.3 71.45,120.88 C84.36,116.31 87.92,110.85 87.41,110.02 C86.47,108.48 79.79,113.97 69.66,117.19 C57.02,121.2 50.11,121.28 50.37,122.74 Z" fill="#C9C9C9"/>
</svg>
